X:1
T:Glenlivet [3]
T:Glenlivet [3]
T:Alexander Walker
C:Alexander Walker
L:1/8
M:4/4
K:Bmin
V:1 treble 
V:1
 C | B,>^A,B,>D (F2 F<)B | A<FD>F E<CA,>C | B,>^A,B,>D F2 F>f | e>cA>c B/B/B B :| f | %6
 f>B f/e/d/c/ d>Bc>A | B<FF>E C<A,A,>d | f>d f/e/d/c/ d>Bc>A | F>f{f} e>d B/B/B B>d | %10
 f>B f/e/d/c/ d>Bc>A | e<Ac>A aAc>A | B>cd>e f>ef<a | e>cA>c B/B/B B || %14

